symbolic/32x32/mimetypes/application-pgp-keys.svg

<svg xmlns="http://www.w3.org/2000/svg" width="32" height="32" version="1.1">
 <path style="opacity:0.2" d="M 6.375,3 C 5.61325,3 5,3.6244 5,4.4 V 29.6 C 5,30.37504 5.61325,31 6.375,31 h 19.25 C 26.3862,31 27,30.37504 27,29.6 V 12 L 20,10 18,3 Z"/>
 <path style="fill:#e4e4e4" d="M 6.375,2 C 5.61325,2 5,2.6244 5,3.4 V 28.6 C 5,29.37504 5.61325,30 6.375,30 h 19.25 C 26.3862,30 27,29.37504 27,28.6 V 11 L 20,9 18,2 Z"/>
 <path style="opacity:0.2" d="M 27,12 18,3 v 7.59375 C 18,11.373375 18.62775,12 19.40625,12 Z"/>
 <path style="fill:#fafafa" d="M 27,11 18,2 V 9.59375 C 18,10.373375 18.62775,11 19.40625,11 Z"/>
 <path style="opacity:0.2;fill:#ffffff" d="M 6.375,2 C 5.61325,2 5,2.6247906 5,3.4003906 v 1 C 5,3.6247906 5.61325,3 6.375,3 H 18 V 2 Z"/>
 <path style="fill:#129a4d" d="M 13 17 A 4 4 0 0 0 9 21 A 4 4 0 0 0 13 25 A 4 4 0 0 0 16.867188 22 L 19 22 L 19.029297 24 L 22 24 L 22 22 L 23 22 L 23 20 L 16.869141 20 A 4 4 0 0 0 13 17 z M 13 20 C 13.552284 20 14 20.447716 14 21 C 14 21.552284 13.552284 22 13 22 C 12.447715 22 12 21.552284 12 21 C 12 20.447716 12.447715 20 13 20 z"/>
</svg>

<svg xmlns="http://www.w3.org/2000/svg" width="32" height="32"><path style="opacity:.2" d="M6.375 3C5.613 3 5 3.624 5 4.4v25.2c0 .775.613 1.4 1.375 1.4h19.25c.761 0 1.375-.625 1.375-1.4V12l-7-2-2-7z"/><path style="fill:#e4e4e4" d="M6.375 2C5.613 2 5 2.624 5 3.4v25.2c0 .775.613 1.4 1.375 1.4h19.25c.761 0 1.375-.625 1.375-1.4V11l-7-2-2-7z"/><path style="opacity:.2" d="m27 12-9-9v7.594c0 .78.628 1.406 1.406 1.406z"/><path style="fill:#fafafa" d="m27 11-9-9v7.594c0 .78.628 1.406 1.406 1.406z"/><path style="opacity:.2;fill:#fff" d="M6.375 2C5.613 2 5 2.625 5 3.4v1C5 3.625 5.613 3 6.375 3H18V2z"/><path style="fill:#129a4d" d="M13 17a4 4 0 0 0-4 4 4 4 0 0 0 4 4 4 4 0 0 0 3.867-3H19l.03 2H22v-2h1v-2h-6.13A4 4 0 0 0 13 17zm0 3a1 1 0 1 1 0 2 1 1 0 0 1 0-2z"/></svg>
